!!!OTL: Ob hanc ergo eius magnam
**kern
*staff1
=1-
*clefC1
*k[b-]
*met(c|)
*M2/2
0cc
=2
1a
1f
=3
1b-
1g
=4
1a
1f
=5
1f
1g
=6
1e
1g
=7
1g
1a
=8
0b-
=9
0cc;
=10
!!linebreak:original
1dd
2dd\
2cc\
=11
1b-
1a
=12
1dd
2dd\
2cc\
=13
1b-
1a
=14
1g
1cc
=15
1a
1.dd
2cc\
=16
2b-\
2a\
1g
=17
2r
1cc
1b-
=18
2a\
2g\
1a
=19
0g
=20
1f
0g
==
*-
!!title: @{OTL}, @{GTL}, ed. @{ENC}
!!!pag:
!!!GTL: Hymnbook D
!!!EFL: 
!!!YEM: Creative Commons CC/BY/NC/SA 4.0
!!!ENC: Marcin Konik
!!!END: 2015-0m-dd
!!!EED: Marcin Konik
!!!EEV: 
!!!ONB: Encoded in vim by Marcin Konik
!!!CharacterEncoding: utf-8
!!!RDF**kern: l=long note in original notation
!!!RDF**kern: i=editorial accidental
!!muse2ps: z14jc180F
!!!COM: Anonim
!!!CDT: [?]
!!!TXO: Polish
!!!ODT: 
!!!GTL: Hymnbook D
!!!ARL: Opactwo św. Wojciecha, Staniątki 
!!!voices:	1
